X:32
T:The Salvation
C:Simon Bradley
Z:robin.beech@mcgill.ca
S:Victoria Bar, Glasgow
R:reel
M:4/4
L:1/8
K:A
EGAE GAEG | (3AAA cA BAFA | B3c BAFA | dBcA BAFA |
EGAE GAEG | (3AAA cA BAFA | c3A BcAF | ceed cBAF ::
ceec e2ce | f3e cBB2 | f3e f3g | abgf fecB |
cdec defg | abaf eAce | fecA B2AB | cBAE F3d :|
